X:796
T:Pirriwig, The
R:Reel
B:The Athole Collection
M:C|
L:1/8
K:E Minor
B|g3b agfa|gfeg dB B2|g3b agfa|gef^d e/e/e g2|g3b agfa|gfeg dBBd|
gggb agfa|gef^d e/e/e g2||
dB B/B/B dBBg|eBBA GEEg|dB B/B/B dBBa|gef^d e/e/e g2|
dB B/B/B dBBg|eBBA GEEF|GABc dBBa|gef^d e/e/e g2||

